( Wing segment 1/1 for right side )
( Wing root airfoil: CLARK-Y 11.7% smoothed, 150mm chord )
( Wing tip airfoil: CLARK-Y 11.7% smoothed, 70mm chord )
( Wing segment length: 500 mm )
( Foam block width: 500 mm )
( Foam block height: 100 mm )
( Foam block length: 500 mm )
( Foam block offset: 50 mm )
( Machine X/U axis length: 500 mm )
( Machine Y/V axis length: 300 mm )
( Cutting speed: 300 mm/min )
( Hot wire relay control speed: false )
G17
G21
( SET ABSOLUTE MODE )
G90
( SET CUTTER COMPENSATION )
G40
( SET TOOL LENGTH OFFSET )
G49
( SET PATH CONTROL MODE )
(G64)
( SET FEED RATE MODE )
G94
F300
( HOMING )
G28
( FIRST-VERTICAL )
G1 X0.00 Y10.47 U0.00 Z10.47
( PRE-ENTRY )
G1 X0.00 Y10.47 U0.00 Z10.47
( ENTRY )
G1 X10.00 Y10.47 U10.00 Z10.47
( TOP SECTION )
G1 X10.00 Y10.47 U10.00 Z10.47
G1 X10.07 Y10.82 U10.20 Z11.55
G1 X10.27 Y11.22 U10.81 Z12.76
G1 X10.60 Y11.65 U11.82 Z14.07
G1 X11.06 Y12.09 U13.24 Z15.42
G1 X11.64 Y12.52 U15.04 Z16.75
G1 X12.36 Y12.94 U17.23 Z18.04
G1 X13.20 Y13.34 U19.79 Z19.27
G1 X14.15 Y13.74 U22.72 Z20.48
G1 X15.22 Y14.13 U26.01 Z21.67
G1 X16.40 Y14.51 U29.62 Z22.84
G1 X17.69 Y14.87 U33.57 Z23.95
G1 X19.08 Y15.19 U37.82 Z24.95
G1 X20.56 Y15.48 U42.36 Z25.81
G1 X22.13 Y15.71 U47.16 Z26.52
G1 X23.77 Y15.89 U52.21 Z27.07
G1 X25.50 Y16.03 U57.49 Z27.50
( SPAR START )
G1 X22.40 Y12.23 U48.00 Z15.86
( SPAR CIRCLE )
G1 X22.40 Y14.73 U48.00 Z18.36
G1 X23.65 Y14.39 U49.25 Z18.02
G1 X24.57 Y13.48 U50.17 Z17.11
G1 X24.90 Y12.23 U50.50 Z15.86
G1 X24.57 Y10.98 U50.17 Z14.61
G1 X23.65 Y10.06 U49.25 Z13.69
G1 X22.40 Y9.73 U48.00 Z13.36
G1 X21.15 Y10.06 U46.75 Z13.69
G1 X20.23 Y10.98 U45.83 Z14.61
G1 X19.90 Y12.23 U45.50 Z15.86
G1 X20.23 Y13.48 U45.83 Z17.11
G1 X21.15 Y14.39 U46.75 Z18.02
G1 X22.40 Y14.73 U48.00 Z18.36
( SPAR EXIT )
G1 X22.40 Y12.23 U48.00 Z15.86
G1 X25.50 Y16.03 U57.49 Z27.50
( SPAR END )
G1 X27.29 Y16.13 U62.98 Z27.81
G1 X29.13 Y16.20 U68.64 Z28.01
G1 X31.03 Y16.23 U74.45 Z28.12
G1 X32.97 Y16.23 U80.40 Z28.11
G1 X36.95 Y16.11 U92.59 Z27.76
G1 X41.00 Y15.86 U104.99 Z26.99
G1 X45.04 Y15.48 U117.39 Z25.83
G1 X49.02 Y15.00 U129.58 Z24.34
G1 X52.86 Y14.43 U141.35 Z22.61
G1 X56.50 Y13.82 U152.50 Z20.73
G1 X59.87 Y13.19 U162.83 Z18.80
G1 X62.92 Y12.57 U172.17 Z16.92
G1 X65.59 Y12.00 U180.37 Z15.16
G1 X67.85 Y11.50 U187.27 Z13.61
G1 X69.64 Y11.07 U192.77 Z12.31
G1 X70.94 Y10.75 U196.76 Z11.32
G1 X71.73 Y10.54 U199.19 Z10.69
G1 X72.00 Y10.47 U200.00 Z10.47
G1 X72.00 Y10.47 U200.00 Z10.47
( EASING )
G1 X82.00 Y10.47 U210.00 Z10.47
( EASING RETURN )
G1 X72.00 Y10.47 U200.00 Z10.47
( BOTTOM SECTION )
G1 X72.00 Y10.47 U200.00 Z10.47
G1 X72.00 Y10.47 U200.00 Z10.47
G1 X71.73 Y10.45 U199.19 Z10.42
G1 X70.94 Y10.41 U196.76 Z10.29
G1 X69.64 Y10.35 U192.77 Z10.11
G1 X67.85 Y10.28 U187.27 Z9.89
G1 X65.59 Y10.20 U180.37 Z9.65
G1 X62.92 Y10.11 U172.18 Z9.36
G1 X59.87 Y10.01 U162.83 Z9.04
G1 X56.50 Y9.89 U152.50 Z8.68
G1 X52.86 Y9.76 U141.36 Z8.29
G1 X49.02 Y9.63 U129.59 Z7.88
G1 X45.05 Y9.49 U117.40 Z7.46
G1 X41.00 Y9.34 U105.00 Z7.02
G1 X36.95 Y9.20 U92.60 Z6.59
G1 X32.98 Y9.06 U80.41 Z6.15
G1 X31.04 Y8.99 U74.47 Z5.94
G1 X29.14 Y8.93 U68.65 Z5.74
G1 X27.29 Y8.86 U62.99 Z5.54
G1 X25.50 Y8.80 U57.50 Z5.36
G1 X23.78 Y8.75 U52.22 Z5.21
G1 X22.13 Y8.71 U47.17 Z5.09
G1 X20.56 Y8.69 U42.37 Z5.02
G1 X19.08 Y8.69 U37.83 Z5.00
G1 X17.69 Y8.70 U33.58 Z5.04
G1 X16.41 Y8.73 U29.63 Z5.14
G1 X15.23 Y8.78 U26.01 Z5.30
G1 X14.15 Y8.85 U22.73 Z5.51
G1 X13.20 Y8.95 U19.80 Z5.80
G1 X12.36 Y9.07 U17.23 Z6.18
G1 X11.65 Y9.23 U15.04 Z6.66
G1 X11.06 Y9.42 U13.24 Z7.25
G1 X10.60 Y9.64 U11.83 Z7.92
G1 X10.27 Y9.88 U10.81 Z8.68
G1 X10.07 Y10.16 U10.20 Z9.52
G1 X10.00 Y10.47 U10.00 Z10.47
( PRE-EXIT )
G1 X0.00 Y10.47 U0.00 Z10.47
( EXIT )
G1 X0.00 Y10.47 U0.00 Z10.47
( GO TO ZERO )
G1 X0.00 Y0.00 U0.00 Z0.00
M2